src/Assets/icon/icon_copy.svg

<svg fill="none" height="16" viewBox="0 0 16 16" width="16" xmlns="http://www.w3.org/2000/svg"><path d="m13.3334 1.33337h-6.66669c-.73534 0-1.33334.598-1.33334 1.33334v2.66666h-2.66666c-.73534 0-1.33334.598-1.33334 1.33334v6.66669c0 .7353.598 1.3333 1.33334 1.3333h6.66666c.73533 0 1.33333-.598 1.33333-1.3333v-2.6667h2.6667c.7353 0 1.3333-.598 1.3333-1.33333v-6.66666c0-.73534-.598-1.33334-1.3333-1.33334zm-10.66669 12.00003v-6.66669h6.66666l.00134 6.66669zm10.66669-4.00003h-2.6667v-2.66666c0-.73534-.598-1.33334-1.33333-1.33334h-2.66666v-2.66666h6.66669z" fill="#2977ec"/></svg>

<svg width="16" height="16" viewBox="0 0 16 16" fill="none" xmlns="http://www.w3.org/2000/svg">
<path d="M13.3334 1.33337H6.66671C5.93137 1.33337 5.33337 1.93137 5.33337 2.66671V5.33337H2.66671C1.93137 5.33337 1.33337 5.93137 1.33337 6.66671V13.3334C1.33337 14.0687 1.93137 14.6667 2.66671 14.6667H9.33337C10.0687 14.6667 10.6667 14.0687 10.6667 13.3334V10.6667H13.3334C14.0687 10.6667 14.6667 10.0687 14.6667 9.33337V2.66671C14.6667 1.93137 14.0687 1.33337 13.3334 1.33337ZM2.66671 13.3334V6.66671H9.33337L9.33471 13.3334H2.66671ZM13.3334 9.33337H10.6667V6.66671C10.6667 5.93137 10.0687 5.33337 9.33337 5.33337H6.66671V2.66671H13.3334V9.33337Z" fill="#2977EC"/>
</svg>
